rospo-icon-theme-classic-common/64x64/places/folder-brown-games.svg

<svg height="64" width="64" xmlns="http://www.w3.org/2000/svg"><rect height="32" opacity=".2" rx="2.5" width="50" x="7" y="24"/><path d="m7 44.5c0 1.385 1.115 2.5 2.5 2.5h45c1.385 0 2.5-1.115 2.5-2.5v-27c0-1.385-1.115-2.5-2.5-2.5h-25.5v-2.5c0-1.385-1.115-2.5-2.5-2.5h-17c-1.385 0-2.5 1.115-2.5 2.5" fill="#957552"/><rect height="32" opacity=".2" rx="2.5" width="50" x="7" y="22"/><rect fill="#e4e4e4" height="20" rx="2.5" width="44" x="10" y="18"/><rect fill="#ae8e6c" height="32" rx="2.5" width="50" x="7" y="23"/><path d="m9.5 10c-1.385 0-2.5 1.115-2.5 2.5v1c0-1.385 1.115-2.5 2.5-2.5h17c1.385 0 2.5 1.115 2.5 2.5v-1c0-1.385-1.115-2.5-2.5-2.5zm19.5 5v1h25.5c1.39 0 2.5 1.115 2.5 2.5v-1c0-1.385-1.11-2.5-2.5-2.5z" fill="#fff" opacity=".1"/><path d="m26.73 31c-.302.001-.651.097-1.007.301-1.297.73-2.491 3.122-3.139 6.222-.553 2.634-.755 6.232-.426 7.68.287 1.245.782 1.797 1.664 1.797 1.308-.024 2.953-1.581 3.994-3.676.754-1.159 2.5-1.687 4.184-1.629 1.684-.063 3.43.47 4.184 1.629 1.041 2.095 2.686 3.652 3.994 3.676.882 0 1.377-.552 1.664-1.797.329-1.448.127-5.046-.426-7.68-.648-3.1-1.842-5.492-3.139-6.222-.356-.204-.683-.302-.984-.301-.301.002-.576.103-.836.301-.659.503-2.033 1.041-4.457 1.043s-3.798-.54-4.457-1.043c-.26-.198-.51-.303-.813-.301zm.27 3h2v2h2v2h-2v2h-2v-2h-2v-2h2zm9 0c .552 0 1 .448 1 1s-.448 1-1 1-1-.448-1-1 .448-1 1-1zm-2 2c .552 0 1 .448 1 1s-.448 1-1 1-1-.448-1-1 .448-1 1-1zm4 0c .552 0 1 .448 1 1s-.448 1-1 1-1-.448-1-1 .448-1 1-1zm-2 2c .552 0 1 .448 1 1s-.448 1-1 1-1-.448-1-1 .448-1 1-1z" fill="#3d3226"/></svg>

<svg xmlns="http://www.w3.org/2000/svg" width="64" height="64" version="1.1">
 <rect style="opacity:0.2" width="50" height="32" x="7" y="24" rx="2.5" ry="2.5"/>
 <path style="fill:#957552" d="M 7,44.5 C 7,45.885 8.115,47 9.5,47 H 54.5 C 55.885,47 57,45.885 57,44.5 V 17.5 C 57,16.115 55.885,15 54.5,15 H 29 V 12.5 C 29,11.115 27.885,10 26.5,10 H 9.5 C 8.115,10 7,11.115 7,12.5"/>
 <rect style="opacity:0.2" width="50" height="32" x="7" y="22" rx="2.5" ry="2.5"/>
 <rect style="fill:#dcdcdc" width="44" height="20" x="10" y="18" rx="2.5" ry="2.5"/>
 <rect style="fill:#ae8e6c" width="50" height="32" x="7" y="23" rx="2.5" ry="2.5"/>
 <path style="opacity:0.1;fill:#ffffff" d="M 9.5,10 C 8.115,10 7,11.115 7,12.5 V 13.5 C 7,12.115 8.115,11 9.5,11 H 26.5 C 27.885,11 29,12.115 29,13.5 V 12.5 C 29,11.115 27.885,10 26.5,10 Z M 29,15 V 16 H 54.5 C 55.89,16 57,17.115 57,18.5 V 17.5 C 57,16.115 55.89,15 54.5,15 Z"/>
 <path style="fill:#3d3226" d="M 26.73 31 C 26.428 31.001 26.079 31.097 25.723 31.301 C 24.426 32.031 23.232 34.423 22.584 37.523 C 22.031 40.157 21.829 43.755 22.158 45.203 C 22.445 46.448 22.94 47 23.822 47 C 25.13 46.976 26.775 45.419 27.816 43.324 C 28.57 42.165 30.316 41.637 32 41.695 C 33.684 41.632 35.43 42.165 36.184 43.324 C 37.225 45.419 38.87 46.976 40.178 47 C 41.06 47 41.555 46.448 41.842 45.203 C 42.171 43.755 41.969 40.157 41.416 37.523 C 40.768 34.423 39.574 32.031 38.277 31.301 C 37.921 31.097 37.594 30.999 37.293 31 C 36.992 31.002 36.717 31.103 36.457 31.301 C 35.798 31.804 34.424 32.342 32 32.344 C 29.576 32.346 28.202 31.804 27.543 31.301 C 27.283 31.103 27.033 30.998 26.73 31 z M 27 34 L 29 34 L 29 36 L 31 36 L 31 38 L 29 38 L 29 40 L 27 40 L 27 38 L 25 38 L 25 36 L 27 36 L 27 34 z M 36 34 C 36.552 34 37 34.448 37 35 C 37 35.552 36.552 36 36 36 C 35.448 36 35 35.552 35 35 C 35 34.448 35.448 34 36 34 z M 34 36 C 34.552 36 35 36.448 35 37 C 35 37.552 34.552 38 34 38 C 33.448 38 33 37.552 33 37 C 33 36.448 33.448 36 34 36 z M 38 36 C 38.552 36 39 36.448 39 37 C 39 37.552 38.552 38 38 38 C 37.448 38 37 37.552 37 37 C 37 36.448 37.448 36 38 36 z M 36 38 C 36.552 38 37 38.448 37 39 C 37 39.552 36.552 40 36 40 C 35.448 40 35 39.552 35 39 C 35 38.448 35.448 38 36 38 z"/>
</svg>
